src/22/panel/gpm-brightness-lcd-invalid.svg

<svg xmlns="http://www.w3.org/2000/svg" width="22" height="22" version="1.1">
 <defs>
  <style id="current-color-scheme" type="text/css">
   .ColorScheme-Text { color:#bebebe; } .ColorScheme-Highlight { color:#5294e2; }
  </style>
 </defs>
 <path style="opacity:0.3;fill:currentColor" class="ColorScheme-Text" d="m 11.00015,3.7210001 -2.1894998,2.2793 H 6.0001501 v 2.8105 L 3.7208502,11.0003 6.0001501,13.221 V 16 H 8.8106502 L 11.00015,18.279 13.22115,16 h 2.779 v -2.779 l 2.279,-2.2207 -2.279,-1.9999999 v -3 h -2.779 z m 0,3.2793 c 2.21,0 4,1.79 4,3.9999999 0,2.2097 -1.79,3.9997 -4,3.9997 -2.2099999,0 -3.9999999,-1.79 -3.9999999,-3.9997 0,-2.2099999 1.79,-3.9999999 3.9999999,-3.9999999 z"/>
 <path style="fill:currentColor" class="ColorScheme-Highlight" d="M 10 8 L 10 12 L 12 12 L 12 8 L 10 8 z M 10 13 L 10 14 L 12 14 L 12 13 L 10 13 z"/>
</svg>

<svg xmlns="http://www.w3.org/2000/svg" width="22" height="22"><path d="M11 3.721l-2.19 2.28H6v2.81L3.72 11 6 13.22V16h2.81L11 18.279 13.221 16h2.78v-2.779l2.278-2.22L16 9V6h-2.779zm0 3.28c2.21 0 4 1.79 4 4C15 13.21 13.21 15 11 15s-4-1.79-4-4 1.79-4 4-4z" opacity=".3" fill="currentColor" color="#bebebe"/><path d="M10 8v4h2V8h-2zm0 5v1h2v-1h-2z" fill="currentColor" color="#5294e2"/></svg>
